Flat-Remix-Blue-Dark/apps/scalable/reddit.svg

<svg xmlns="http://www.w3.org/2000/svg" width="512" height="512" version="1.1" viewBox="0 0 384 384"> <defs> <linearGradient id="linear0" x1="423.727" x2="423.727" y1="539.224" y2="508.465" gradientTransform="matrix(9.955125,0,0,9.955125,-3875.08899,-5025.5553)" gradientUnits="userSpaceOnUse"> <stop offset="0" style="stop-color:rgb(99.215%,20.784%,20.784%)"/> <stop offset="1" style="stop-color:rgb(99.215%,20.784%,20.784%)"/> </linearGradient> </defs> <g> <path style="fill:rgb(0%,0%,0%);fill-opacity:0.235294" d="M 215.957031 39.722656 C 213.59375 40.632812 206.472656 58.582031 199.019531 82.402344 C 191.945312 105.011719 185.667969 124.992188 185.0625 126.8125 C 184.460938 128.632812 177.917969 130.890625 170.527344 131.808594 C 143.21875 135.214844 109.746094 144.617188 91.003906 154.171875 L 71.71875 164.007812 L 62.707031 158.488281 C 45.421875 147.914062 20.125 154.871094 11.148438 172.660156 C 3.777344 187.28125 10.691406 214.5 22.972656 219.230469 C 26.046875 220.414062 27.140625 225.378906 27.160156 238.050781 C 27.242188 286.089844 71.753906 327.0625 140.332031 342.230469 C 166.914062 348.113281 219.933594 347.363281 247.570312 340.714844 C 292.949219 329.800781 334.285156 301.578125 348.726562 271.652344 C 353.148438 262.484375 355.25 253.019531 355.351562 241.707031 C 355.492188 226.425781 356.3125 224.363281 365.992188 214.621094 C 375.378906 205.179688 376.460938 202.558594 376.460938 189.675781 C 376.460938 177.320312 375.175781 173.882812 367.292969 165.253906 C 355.183594 152 337.164062 149.183594 321.9375 158.195312 L 311.859375 164.164062 L 288.96875 153.0625 C 264.171875 141.039062 236.707031 133.429688 217.878906 133.367188 C 211.34375 133.332031 205.996094 132.039062 205.996094 130.46875 C 205.996094 127.628906 225.292969 66.203125 227.21875 62.902344 C 228.105469 61.386719 292.78125 75.933594 293.875 77.890625 C 294.105469 78.308594 295.800781 82.183594 297.652344 86.507812 C 299.667969 91.203125 305.058594 96.050781 311.046875 98.5625 C 335.695312 108.894531 360.207031 83.125 348.183594 59.539062 C 339.722656 42.945312 318.585938 38.355469 304.921875 50.144531 L 297.324219 56.699219 L 258.675781 47.421875 C 237.417969 42.324219 218.203125 38.859375 215.957031 39.722656 Z M 131.78125 187.417969 C 148.226562 187.417969 161.554688 200.792969 161.554688 217.285156 C 161.554688 233.78125 148.226562 247.152344 131.78125 247.152344 C 115.339844 247.152344 102.011719 233.78125 102.011719 217.285156 C 102.011719 200.792969 115.339844 187.417969 131.78125 187.417969 Z M 252.804688 187.417969 C 269.246094 187.417969 282.574219 200.792969 282.574219 217.285156 C 282.574219 233.78125 269.246094 247.152344 252.804688 247.152344 C 236.363281 247.152344 223.03125 233.78125 223.03125 217.285156 C 223.035156 200.792969 236.363281 187.417969 252.804688 187.417969 Z M 251.445312 280.457031 C 254.714844 280.832031 256.292969 283.640625 256.292969 288.878906 C 256.292969 307.160156 202.308594 320.636719 164.035156 311.917969 L 164.035156 311.9375 C 143.3125 307.21875 127.75 297.371094 127.75 288.992188 C 127.75 279.136719 135.121094 278.351562 147.929688 286.855469 C 175.6875 297.039062 209.6875 297.003906 236.484375 286.601562 C 243.214844 282.132812 248.175781 280.082031 251.445312 280.457031 Z M 251.445312 280.457031"/> <path style="fill:url(#linear0)" d="M 215.957031 35.742188 C 213.59375 36.652344 206.472656 54.601562 199.019531 78.421875 C 191.945312 101.03125 185.667969 121.011719 185.0625 122.832031 C 184.460938 124.652344 177.917969 126.90625 170.527344 127.828125 C 143.21875 131.230469 109.746094 140.636719 91.003906 150.1875 L 71.71875 160.027344 L 62.707031 154.503906 C 45.421875 143.933594 20.125 150.886719 11.148438 168.679688 C 3.777344 183.300781 10.691406 210.519531 22.972656 215.246094 C 26.046875 216.429688 27.140625 221.394531 27.160156 234.070312 C 27.242188 282.109375 71.753906 323.078125 140.332031 338.25 C 166.914062 344.128906 219.933594 343.378906 247.570312 336.734375 C 292.949219 325.820312 334.285156 297.597656 348.726562 267.667969 C 353.148438 258.5 355.25 249.039062 355.351562 237.726562 C 355.492188 222.441406 356.3125 220.382812 365.992188 210.640625 C 375.378906 201.195312 376.460938 198.574219 376.460938 185.691406 C 376.460938 173.335938 375.175781 169.898438 367.292969 161.273438 C 355.183594 148.015625 337.164062 145.203125 321.9375 154.214844 L 311.859375 160.183594 L 288.96875 149.082031 C 264.171875 137.058594 236.707031 129.449219 217.878906 129.382812 C 211.34375 129.351562 205.996094 128.058594 205.996094 126.488281 C 205.996094 123.648438 225.292969 62.21875 227.21875 58.917969 C 228.105469 57.402344 292.78125 71.949219 293.875 73.910156 C 294.105469 74.328125 295.800781 78.203125 297.652344 82.523438 C 299.667969 87.21875 305.058594 92.070312 311.046875 94.578125 C 335.695312 104.910156 360.207031 79.144531 348.183594 55.554688 C 339.722656 38.960938 318.585938 34.371094 304.921875 46.164062 L 297.324219 52.714844 L 258.675781 43.441406 C 237.417969 38.339844 218.203125 34.878906 215.957031 35.742188 Z M 131.78125 183.4375 C 148.226562 183.4375 161.554688 196.808594 161.554688 213.304688 C 161.554688 229.796875 148.226562 243.167969 131.78125 243.167969 C 115.339844 243.167969 102.011719 229.796875 102.011719 213.304688 C 102.011719 196.808594 115.339844 183.4375 131.78125 183.4375 Z M 252.804688 183.4375 C 269.246094 183.4375 282.574219 196.808594 282.574219 213.304688 C 282.574219 229.796875 269.246094 243.167969 252.804688 243.167969 C 236.363281 243.167969 223.03125 229.796875 223.03125 213.304688 C 223.035156 196.808594 236.363281 183.4375 252.804688 183.4375 Z M 251.445312 276.476562 C 254.714844 276.851562 256.292969 279.660156 256.292969 284.894531 C 256.292969 303.175781 202.308594 316.652344 164.035156 307.9375 L 164.035156 307.953125 C 143.3125 303.234375 127.75 293.390625 127.75 285.011719 C 127.75 275.152344 135.121094 274.367188 147.929688 282.871094 C 175.6875 293.058594 209.6875 293.023438 236.484375 282.621094 C 243.214844 278.152344 248.175781 276.101562 251.445312 276.476562 Z M 251.445312 276.476562"/> <path style="fill:rgb(74.901%,9.019%,9.019%)" d="M 227.210938 50.945312 C 225.28125 54.246094 205.996094 115.671875 205.996094 118.511719 C 205.996094 119.035156 206.742188 119.507812 207.765625 119.933594 C 211.894531 105.074219 225.5625 61.742188 227.210938 58.917969 C 228.097656 57.402344 292.789062 71.949219 293.882812 73.910156 C 294.113281 74.324219 295.804688 78.203125 297.65625 82.523438 C 299.667969 87.21875 305.066406 92.070312 311.050781 94.578125 C 332.6875 103.648438 354.199219 84.898438 351.007812 64.226562 C 348.523438 81.367188 329.855469 94.488281 311.050781 86.605469 C 305.066406 84.097656 299.667969 79.246094 297.65625 74.550781 C 295.804688 70.230469 294.113281 66.355469 293.882812 65.9375 C 292.789062 63.976562 228.097656 49.429688 227.210938 50.945312 Z M 131.78125 175.484375 C 115.339844 175.484375 102.015625 188.855469 102.015625 205.347656 C 102.023438 206.683594 102.121094 208.015625 102.304688 209.335938 C 104.285156 194.515625 116.878906 183.449219 131.78125 183.4375 C 146.691406 183.453125 159.289062 194.527344 161.257812 209.355469 C 161.445312 208.027344 161.542969 206.6875 161.550781 205.347656 C 161.550781 188.855469 148.222656 175.484375 131.78125 175.484375 Z M 252.800781 175.484375 C 236.359375 175.484375 223.03125 188.855469 223.03125 205.347656 C 223.042969 206.6875 223.148438 208.027344 223.339844 209.355469 C 225.3125 194.535156 237.898438 183.460938 252.796875 183.4375 C 267.699219 183.449219 280.296875 194.515625 282.273438 209.335938 C 282.460938 208.015625 282.558594 206.683594 282.566406 205.347656 C 282.566406 188.855469 269.238281 175.484375 252.796875 175.484375 Z M 8.375 179.742188 C 7.15625 194.160156 13.375 211.550781 22.976562 215.246094 C 26.046875 216.429688 27.136719 221.390625 27.15625 234.066406 C 27.238281 282.105469 71.761719 323.074219 140.335938 338.246094 C 166.921875 344.125 219.933594 343.375 247.570312 336.730469 C 292.949219 325.816406 334.292969 297.59375 348.734375 267.664062 C 353.15625 258.496094 355.242188 249.035156 355.34375 237.722656 C 355.484375 222.4375 356.316406 220.378906 366 210.636719 C 375.382812 201.195312 376.460938 198.574219 376.460938 185.691406 C 376.460938 184.183594 376.351562 183.148438 376.304688 181.878906 C 375.957031 191.027344 374.167969 194.464844 366 202.683594 C 356.316406 212.425781 355.484375 214.488281 355.34375 229.769531 C 355.242188 241.085938 353.15625 250.546875 348.734375 259.714844 C 334.292969 289.640625 292.949219 317.863281 247.570312 328.777344 C 219.933594 335.421875 166.921875 336.175781 140.335938 330.292969 C 71.761719 315.121094 27.234375 274.152344 27.15625 226.113281 C 27.136719 213.441406 26.050781 208.476562 22.976562 207.292969 C 15.105469 204.265625 9.492188 192.007812 8.375 179.742188 Z M 251.4375 268.519531 C 248.167969 268.148438 243.214844 270.195312 236.484375 274.664062 C 209.6875 285.066406 175.679688 285.105469 147.921875 274.917969 C 135.109375 266.414062 127.757812 267.199219 127.757812 277.058594 C 127.757812 278.183594 128.074219 279.332031 128.613281 280.5 C 130.820312 275.304688 137.539062 275.980469 147.917969 282.871094 C 175.679688 293.058594 209.6875 293.019531 236.484375 282.617188 C 243.214844 278.148438 248.167969 276.101562 251.4375 276.472656 C 253.558594 276.714844 254.890625 278.105469 255.617188 280.402344 C 256.046875 279.269531 256.300781 278.117188 256.300781 276.941406 C 256.300781 271.703125 254.707031 268.894531 251.4375 268.519531 Z M 251.4375 268.519531"/> </g> </svg>

<svg width="512" height="512" version="1.1" viewBox="0 0 384 384" xmlns="http://www.w3.org/2000/svg">
	<defs>
		<linearGradient id="linear0" x1="423.73" x2="423.73" y1="539.22" y2="508.46" gradientTransform="matrix(9.9551 0 0 9.9551 -3875.1 -5025.6)" gradientUnits="userSpaceOnUse">
			<stop style="stop-color:#fc3434" offset="0"/>
			<stop style="stop-color:#fc3434" offset="1"/>
		</linearGradient>
	</defs>
	<g transform="matrix(.957 0 0 .957 7.9787 11.206)">
		<path d="m215.96 35.742c-2.3633 0.91016-9.4844 18.859-16.938 42.68-7.0742 22.609-13.352 42.59-13.957 44.41-0.60156 1.8203-7.1445 4.0742-14.535 4.9961-27.309 3.4023-60.781 12.809-79.523 22.359l-19.285 9.8398-9.0117-5.5234c-17.285-10.57-42.582-3.6172-51.559 14.176-7.3711 14.621-0.45703 41.84 11.824 46.566 3.0742 1.1836 4.168 6.1484 4.1875 18.824 0.08203 48.039 44.594 89.008 113.17 104.18 26.582 5.8789 79.602 5.1289 107.24-1.5156 45.379-10.914 86.715-39.137 101.16-69.066 4.4219-9.168 6.5234-18.629 6.625-29.941 0.14063-15.285 0.96094-17.344 10.641-27.086 9.3867-9.4453 10.469-12.066 10.469-24.949 0-12.355-1.2852-15.793-9.168-24.418-12.109-13.258-30.129-16.07-45.355-7.0586l-10.078 5.9688-22.891-11.102c-24.797-12.023-52.262-19.633-71.09-19.699-6.5352-0.0312-11.883-1.3242-11.883-2.8945 0-2.8398 19.297-64.27 21.223-67.57 0.88672-1.5156 65.562 13.031 66.656 14.992 0.23047 0.41797 1.9258 4.293 3.7773 8.6133 2.0156 4.6953 7.4062 9.5469 13.395 12.055 24.648 10.332 49.16-15.434 37.137-39.023-8.4609-16.594-29.598-21.184-43.262-9.3906l-7.5976 6.5508-38.648-9.2734c-21.258-5.1016-40.473-8.5625-42.719-7.6992zm-84.176 147.7c16.445 0 29.773 13.371 29.773 29.867 0 16.492-13.328 29.863-29.773 29.863-16.441 0-29.77-13.371-29.77-29.863 0-16.496 13.328-29.867 29.77-29.867zm121.02 0c16.441 0 29.77 13.371 29.77 29.867 0 16.492-13.328 29.863-29.77 29.863-16.441 0-29.773-13.371-29.773-29.863 4e-3 -16.496 13.332-29.867 29.773-29.867zm-1.3594 93.039c3.2695 0.375 4.8477 3.1836 4.8477 8.418 0 18.281-53.984 31.758-92.258 23.043v0.0156c-20.723-4.7187-36.285-14.562-36.285-22.941 0-9.8594 7.3711-10.645 20.18-2.1406 27.758 10.188 61.758 10.152 88.555-0.25 6.7305-4.4688 11.691-6.5195 14.961-6.1445z" style="fill:url(#linear0)"/>
		<path d="m227.21 50.945c-1.9297 3.3008-23.013 70.875-23.013 73.715 0 0.52344 0.7461 0.9961 1.7695 1.4219 4.1289-14.859 19.595-64.34 21.243-67.164 0.88672-1.5156 65.578 13.031 66.672 14.992 0.23047 0.41406 1.9219 4.293 3.7734 8.6133 2.0117 4.6953 7.4102 9.5469 13.395 12.055 21.637 9.0703 43.148-9.6797 39.957-30.352-2.4844 17.141-21.152 30.262-39.957 22.379-5.9844-2.5078-11.383-7.3594-13.395-12.055-1.8516-4.3203-3.543-8.1953-3.7734-8.6133-1.0938-1.9609-65.785-16.508-66.672-14.992zm-95.43 124.54c-16.441 0-29.766 13.371-29.766 29.863 8e-3 1.3359 0.10547 2.668 0.28907 3.9883 1.9805-14.82 14.574-25.887 29.477-25.898 14.91 0.0156 27.508 11.09 29.477 25.918 0.1875-1.3281 0.28516-2.668 0.29297-4.0078 0-16.492-13.328-29.863-29.77-29.863zm121.02 0c-16.441 0-29.77 13.371-29.77 29.863 0.0117 1.3398 0.11719 2.6797 0.30859 4.0078 1.9727-14.82 14.559-25.895 29.457-25.918 14.902 0.0117 27.5 11.078 29.477 25.898 0.1875-1.3203 0.28515-2.6524 0.29297-3.9883 0-16.492-13.328-29.863-29.77-29.863zm-244.43 4.2578c-1.2188 14.418 5 31.809 14.602 35.504 3.0703 1.1836 4.1602 6.1445 4.1797 18.82 0.08203 48.039 44.605 89.008 113.18 104.18 26.586 5.8789 79.598 5.1289 107.23-1.5156 45.379-10.914 86.723-39.137 101.16-69.066 4.4219-9.168 6.5078-18.629 6.6094-29.941 0.14062-15.285 0.97266-17.344 10.656-27.086 9.3828-9.4414 10.461-12.062 10.461-24.945 0-1.5078-0.10938-2.543-0.15625-3.8125-0.34766 9.1484-2.1367 12.586-10.305 20.805-9.6836 9.7422-10.516 11.805-10.656 27.086-0.10156 11.316-2.1875 20.777-6.6094 29.945-14.441 29.926-55.785 58.148-101.16 69.062-27.637 6.6445-80.648 7.3984-107.23 1.5156-68.574-15.172-113.1-56.141-113.18-104.18-0.019531-12.672-1.1055-17.637-4.1797-18.82-7.8711-3.0274-13.484-15.285-14.602-27.551zm243.06 88.777c-3.2695-0.37109-8.2227 1.6758-14.953 6.1445-26.797 10.402-60.805 10.441-88.562 0.25391-12.812-8.5039-20.164-7.7188-20.164 2.1406 0 1.125 0.31641 2.2734 0.85547 3.4414 2.207-5.1953 8.9258-4.5195 19.305 2.3711 27.762 10.188 61.77 10.148 88.566-0.2539 6.7305-4.4688 11.684-6.5156 14.953-6.1445 2.1211 0.24218 3.4531 1.6328 4.1797 3.9297 0.42968-1.1328 0.68359-2.2852 0.68359-3.4609 0-5.2383-1.5938-8.0469-4.8633-8.4219z" style="fill:#bd1717"/>
	</g>
</svg>
